X:9
T:Splendid Isolation
C:Mc Glinchey's
R:reel
Z:Transcribed by Lionel Gueganton
L:1/8
Q:360
M:4/4
K:D
|: DEFDEBAF  | E2FEDEFA   |  BGAFGEGA | BeeBdeef     | fgfedBAB | cddedBAF  |
   EAFEDEFA  |1 BGAFGEFE :|2 ABAFE4   |: defedBB/B/B | edBAFABA | FEDB,D2FB |
   AFEFDDDB, | DEFDEBAF   | EAFEDEFA  | BeeBdefe     | dBAFE4  :|

